X: 29208
T: New Custom House, The
R: reel
M: 4/4
K: Dmixolydian
|:ADdD (3EFG AG|cAGE CDEG|ADdD (3EFG AB|cdec dcAG|
AD (3FED (3EFG AG|cAGE CDEG|ADdD (3EFG Ad|cAGE ADD2:|
|:Ad~d2 Adfd|ec~c2 Ggec|Ad~d2 Adfa|gfeg fd~d2|
Ad (3fed adfd|eccB cd (3efg|afge fd~d2|eaag ~e2dc:|

